assets/arrow-right-circle.svg

<svg xmlns="http://www.w3.org/2000/svg" fill="none" viewBox="0 0 28 28">
  <path fill="#2A2238" d="M4 13.25c-.41421 0-.75.3358-.75.75s.33579.75.75.75v-1.5Zm20.5303 1.2803c.2929-.2929.2929-.7677 0-1.0606l-4.7729-4.773c-.2929-.29289-.7678-.29289-1.0607 0-.2929.29289-.2929.76777 0 1.06066L22.9393 14l-4.2426 4.2426c-.2929.2929-.2929.7678 0 1.0607.2929.2929.7678.2929 1.0607 0l4.7729-4.773ZM4 14.75h20v-1.5H4v1.5Z"/>
  <circle cx="14" cy="14" r="13.25" stroke="#2A2238" stroke-width="1.5"/>
</svg>

<svg width="28" height="28" viewBox="0 0 28 28" fill="none" xmlns="http://www.w3.org/2000/svg">
<path d="M4 13.25C3.58579 13.25 3.25 13.5858 3.25 14C3.25 14.4142 3.58579 14.75 4 14.75V13.25ZM24.5303 14.5303C24.8232 14.2374 24.8232 13.7626 24.5303 13.4697L19.7574 8.6967C19.4645 8.40381 18.9896 8.40381 18.6967 8.6967C18.4038 8.98959 18.4038 9.46447 18.6967 9.75736L22.9393 14L18.6967 18.2426C18.4038 18.5355 18.4038 19.0104 18.6967 19.3033C18.9896 19.5962 19.4645 19.5962 19.7574 19.3033L24.5303 14.5303ZM4 14.75H24V13.25H4V14.75Z" fill="#2A2238"/>
<circle cx="14" cy="14" r="13.25" stroke="#2A2238" stroke-width="1.5"/>
</svg>
